X:5
T:The 'Nice' Waltz
C:Scan Tester
N:from the playing of Will Duke, by ear
Q:1/4=180
I:abc2nwc
M:3/4
L:1/8
K:G
dc|B4d2|G4A2|G2F3E|F6|c4e2|A4B2|A2G3F|G2d2c2||
B4d2|G4A2|G2F3E|F4FE|D2D2FG|A2A2B2|c2B2A2|G4:|
|:dc|B2G2B2|e4d2|d4c2|A4A2|A2F2A2|e4d2|d4c2|B4B2||
B2G2B2|e4d2|d4c2|A4A2|A2F2A2|e4d2|d2e2cA|G4:|


